X:1
T:Surrexit dominus vere
T:Anonymous Edited by Mick Swithinbank and Jonathan Goodliffe
T:From a manuscript (no 9-023) source in Guatemala Cathedral
T:Surrexit dominus vere
T:Copyright © 
C:Anonymous
C:Edited by Mick Swithinbank and Jonathan Goodliffe
Z:From a manuscript (no 9-023) source
Z:in Guatemala Cathedral
Z:Copyright ©
%%score [ 1 2 3 4 ]
L:1/8
M:4/4
K:F
V:1 treble nm="Soprano" snm="S."
V:2 treble nm="Alto" snm="A."
V:3 bass nm="Bass" snm="B."
V:4 bass nm="Bass" snm="B."
V:1
 z8 | F3 G AB c2 | A2 B4 A2 | c4 A4 | G4 z4 | z2 FG AB c2- | c2 B2 c2 A2 | G2 F4 E2 | F8 |: %9
w: |Su- * rre- * *|xit Do- mi-|nus ve-|re,|su- * * * rre-|* xit do- mi-|nus ve- *|re.|
 z2 A2 B2 G2 | A2 z A B2 G2 | FGAB c2 G2 | c3 B AG A2- | A2 F2 A2 A2- | AG E2 ^F8 :| %15
w: Al- le- lu-|ya, al- le- lu-|* * * * * ya,|al- * * * *|* le- lu- *|* * * ya.|
V:2
 B,3 C D_E F2- | F_E C2 F2 E2 | F2 D3 _E F2- | F2 E2 F4 | z2 B,C D_E F2- | F2 F2 F2 C2 | %6
w: Su- * rre- * *|* * xit Do- mi-|nus ve- * *|* * re,|su- * rre- * *|* xit do- mi-|
 (E2 D2) F2 C2 | D4 C4 | C8 |: z8 | z4 z2 E2 | F2 D2 E4 | z2 E2 F2 D2- | DE F3 E D2- | D2 ^C2 D8 :| %15
w: nus _ ve- re,|ve- *|re.||Al-|le- lu- ya,|al- le- lu-||* * ya.|
V:3
 z4 B,,3 C, | D,_E, F,2 D,2 C,2 | D,2 B,,3 C, D,2 | C,4 z2 F,2 | _E,4 D,2 B,,C, | %5
w: Su- *|re- * * * xit|Do- mi- nus ve-|re, ve-|* re, su- *|
 D,_E, F,2 D,2 A,2 | z2 G,2 F,2 F,2 | B,,4 C,4 | F,8 |: z4 z2 E,2 | F,2 D,2 G,2 C,2 | %11
w: rre- * * * xit|do- mi- nus|ve- *|re.|Al-|le- lu- ya, al-|
 F,2 F,2 C,2 E,2 | F,2 C,2 D,E,F,G, | A,4 z2 D,2 | A,,2 A,,2 D,8 :| %15
w: le- lu- ya, al-|le- lu- * * * *|ya, al-|le- lu- ya.|
V:4
 z8 | z8 | F,4 F,4 | G,4 F,4 | G,4 F,4 | D,4 F,4 | G,4 A,4 | z8 | z8 |: F,4 G,4 | F,4 G,4 | %11
w: ||Su- rre-|* xit|Do- mi-|* nus|ve- (re).|||Al- *|le- *|
 A,4 G,4 | A,2 G,2 F,2 D,2 | F,8 | E,4 D,8 :| %15
w: ||lu-|* ya.|

